X:1
T:Deh perche non poss' io
T:Tiburtio Massaino
T:Deh perche non poss' io
C:Tiburtio Massaino
%%score [ 1 2 3 4 ]
L:1/8
Q:1/4=112
M:4/2
K:C
V:1 alto1 nm="Soprano" snm="S"
V:2 alto nm="Alto" snm="A"
V:3 tenor nm="Tenor" snm="T"
V:4 bass nm="Bass" snm="B"
V:1
 z16 | z16 | z16 | G6 E2 A4 F4- | F4 E4 D8 | C8 z8 | z4 G4 A2 B2 c2 A2 | B4 d4 c6 B2 | %8
w: |||Deh per- che non|_ poss' i-|o,|Ha- ver _ _ _|_ quan- to de-|
 A8 G4 z2 E2 | F2 G2 A2 F2 G4 E4 | A3 G F4 E2 G3 G G2 | A3 G F4 E4 z2 c2- | c2 B2 c4 d2 d2 edcB | %13
w: si- o, Ha-|ver _ _ _ _ quan-|to de- si- o, quan- to de-|si- * * o, Poi|_ che da glioc- chi san- * * *|
 AB c3 B/A/ B2 c2 G2 A2 A2- | AA A2 A4 A2 d4 B2 | G2 c4 A2 z8 | z8 G4 B3 B | B2 B2 c4 B8 | %18
w: * * * * * * ti, Del viv' I-|* do- lo mi- o, Han spir-|to e vi- ta,|i piu cor-|te- si a- man ti,|
 z2 G2 G3 A B2 B2 c4 | B2 B4 c4 B4 A2- | A2 G2 c4 B4 z4 | z8 G4 G4- | G4 G4 A8 | %23
w: i piu cor- te- si a- man|ti, Ahi crud' in- giu-|* sto Di- o,|in- giu-|* sto Di-|
[M:3/2][Q:1/4=168] B12 | z12 | G4 A4 B4 | G4 A2 G4 ^F2 | G12 | z12 | %29
w: o,||Cie- co fan-|ciul- lo e ri- *|o,||
[M:4/2][Q:1/4=112] G4 G2 E2 A4 G4 | z2 D4 C4 D2 E3 F | G4 G2 E2 A4 G2 G2 | G4 G2 c4 A4 G2 | %33
w: Me non te ac- cu- so,|Me non te ac- cu- *|* so che sen- do qual|se- i, Me non te ac-|
 G4 E2 E2 A4 G2 E2 | A3 G F4 E4 G4 | A4 B4 c2 c2 d4 | G4 c6 B2 A4 | B4 c4 A4 G4 | A3 G F4 E4 G4 | %39
w: cu- so che sen- do qual|se- * * i, Par-|tir non do- vea te-|co i pen- sier mie-|i, Par- tir non|do- vea te- co, Par-|
 A4 B4 c2 c2 d4 | G4 c6 B2 A4 | B16- | B16 |] %43
w: tir non do- vea te-|co i pen- sier mie-|i.|_|
V:2
 z16 | z16 | z8 C6 A,2 | D4 C8 B,4 | C2 D2 E2 C2 D4 G,4 | z4 C6 B,2 C4 | A,4 B,4 C8 | %7
w: ||Deh per-|che non poss'|i- * * * * o,|Deh per- che|non poss' i-|
 B,4 B,4 A,4 E4 | F4 F4 E4 E4 | z4 D4 E2 F2 G2 E2 | F4 A4 G3 F E2 D2- | DC C4 B,2 C4 C4 | %12
w: o, Ha- ver quan-|to de- si- o,|Ha- ver _ _ _|_ quan- to de- si- *|* * * * o, Poi|
 G4 G4 G6 C2 | D2 E2 F4 E2 D2 F2 F2- | FF F2 E4 ^F4 G4 | E2 C2 F4 D4 z2 B,2- | B,2 C4 D2 E4 D4 | %17
w: che, Poi che da|glioc- chi san- ti, Del viv' I-|* do- lo mi- o, Han|spir- to e vi- ta, Han|_ spir- to e vi- ta|
 z8 z2 D2 D3 D | D2 D2 E4 D4 z4 | z16 | z8 z2 D4 E2- | E2 D4 C4 B,2 C4 | B,8 z8 |[M:3/2] D4 D4 E4 | %24
w: i piu cor-|te- si a- man ti,||Ahi crud'|_ in- giu- sto Di-|o,|Cie- co fan-|
 C4 D2 C4 B,2 | C4 F4 D4 | C4 E3 D D4 | D2 D4 D2 E4 | C4 D2 C4 B,2 |[M:4/2] C8 z8 | %30
w: ciul- lo e ri- *|o, Cie- co|fan- ciul- lo e ri-|o, Cie- co fan-|ciul- lo e ri- *|o,|
 G4 G2 E2 A4 G2 C2 | D3 D E2 C3 B,CD E4 | D2 B,4 C4 D2 E4 | E2 D2 C4 F2 F2 E4 | C2 C2 D4 E4 D3 E | %35
w: Me non te ac- cu- so che|sen- do qual se- * * * *|i, Me non te ac- cu-|so che sen- do qual se-|i, Par- tir non do- vea|
 F4 D4 E2 E2 F4 | E12 C4 | D4 E4 F2 F2 E4 | C2 C2 D4 E4 D3 E | F4 D4 E4 F4 | E12 C4 | D16 | D16 |] %43
w: te- co i pen- sier mie-|i, Par-|tir non do- vea te-|co, Par- tir non do- vea|te- co i pen- sier|mie- *||i.|
V:3
 z16 | C6 A,2 D4 C4- | C4 B,4 A,8 | G,8 z8 | z8 z4 G,4- | G,2 E,2 A,4 F,4 E,4 | %6
w: |Deh per- che non|_ poss' i-|o,|Deh|_ per- che non poss'|
 D,8 C,2 D,2 E,2 F,2 | G,8 z4 G,4 | F,2 G,2 A,2 F,2 G,4 C,4 | F,2 E,2 D,4 C,4 C4 | A,6 B,2 C4 B,4 | %11
w: i- o, _ _ _|_ Ha-|ver _ _ _ _ quan-|to de- si- o, quan-|to de- si- o,|
 z16 | z4 z2 C4 B,2 C2 A,2- | A,2 G,2 D4 G,2 B,2 C2 D2- | DD D2 ^C4 D4 z4 | z4 z2 D4 B,4 G,2 | %16
w: |Poi che da glioc-|* chi san- ti, Del viv' I-|* do- lo mi- o,|Han spir- to e|
 G,4 A,2 A,2 B,3 B, B,4 | B,2 E4 DC D2 G,2 B,3 B, | B,2 B,2 C4 B,4 E2 E2- | E2 D2 E8 D4 | %20
w: vi- ta i piu cor- te-|si a- man _ _ ti, i piu cor-|te- si a- man ti, Ahi crud'|_ in- giu- sto|
 C8 D2 B,4 C2- | C2 B,4 A,4 G,4 A,2- | A,2 G,2 G,6 ^F,E, F,4 |[M:3/2] G,12 | z12 | z4 D4 D4 | %26
w: Di- o, Ahi crud'|_ in- giu- sto Di-||o,||Cie- co|
 E4 C3 B, A,4 | G,12 | z12 |[M:4/2] G,4 G,2 A,2 F,4 E,2 C2 | B,4 B,2 C2 A,4 B,2 C2- | %31
w: fan- ciul- lo e ri-|o,||Me non te ac- cu- so che|sen- do qual se- i, Me|
 C2 B,4 C2 A,4 B,2 C2 | B,CDB, E4 A,2 A,2 B,4 | C2 G,4 A,4 B,2 C2 C2 | A,6 B,2 C2 C2 B,4 | %35
w: _ non te ac- cu- so che|sen- * * * * do qual se-|i, Par- tir non do- vea|te- co i pen- sier mie-|
 A,4 z4 z2 C4 B,2 | C4 G,6 F,E, F,2 E,2 | G,2 G,4 A,4 B,2 C2 C2 | A,6 B,2 C2 C2 B,4 | %39
w: i, i pen-|sier mie- * * * *|i, Par- tir non do- vea|te- co i pen- sier mie-|
 A,4 z4 z2 C4 B,2 | C4 G,6 F,E, F,2 E,2 | G,16 | G,16 |] %43
w: i, i pen-|sier mie- * * * *||i.|
V:4
 z16 | z16 | G,6 E,2 A,4 F,4- | F,4 E,4 D,8 | C,8 z8 | C,6 A,,2 D,4 C,4- | C,4 B,,4 A,,8 | %7
w: ||Deh per- che non|_ poss' i-|o,|Deh per- che non|_ poss' i-|
 G,,8 z4 C,4 | D,2 E,2 F,2 D,2 E,4 G,4 | A,2 G,2 F,4 E,4 C,4 | D,2 E,2 F,2 D,2 E,4 G,4 | %11
w: o, Ha-|ver _ _ _ _ quan-|to de- si- o, Ha-|ver _ _ _ _ quan-|
 F,3 E, D,4 C,8 | z4 C,4 G,4 E,2 F,2- | F,2 C,2 D,4 C,2 G,2 F,2 D,2- | D,D, D,2 A,4 D,4 z4 | %15
w: to de- si- o,|Poi che da glioc-|* chi san- ti, Del viv' I-|* do- lo mi- o,|
 z8 z2 G,4 E,2- | E,2 C,2 F,4 E,2 G,2 G,3 G, | G,2 G,2 A,4 G,8 | z2 G,,2 C,3 C, G,,2 G,,2 A,,4 | %19
w: Han spir-|* to e vi- ta i piu cor-|te- si a- man ti,|i piu cor- te- si a- man|
 G,,2 G,4 A,4 G,4 F,2- | F,2 E,2 A,4 G,4 G,4- | G,4 F,4 E,4 E,4- | E,4 G,4 D,8 | %23
w: ti, Ahi crud' in- giu-|* sto Di- o, Ahi|_ crud' in- giu-|* sto Di-|
[M:3/2] G,,4 G,4 G,4 | A,4 F,3 E, D,4 | C,4 D,4 G,4 | C,4 C,3 G,, D,4 | G,,4 G,4 G,4 | %28
w: o, Cie- co|fan- ciul- lo e ri-|o, Cie- co|fan- ciul- lo e ri-|o, Cie- co|
 A,4 F,3 E, D,4 |[M:4/2] C,8 z8 | G,4 G,2 A,2 F,4 E,2 A,2 | G,4 G,2 A,2 F,4 E,2 C,2 | %32
w: fan- ciul- lo e ri-|o,|Me non te ac- cu- so che|sen- do qual se- i, che|
 G,4 E,2 E,2 F,4 E,4 | z4 C,4 D,4 E,4 | F,2 F,2 D,4 C,4 G,,2 G,,2 | D,4 G,,4 C,2 A,,2 D,4 | %36
w: sen- do qual se- i,|Par- tir non|do- vea te- co i pen- sier|mie- i, i pen- sier|
 C,6 B,,2 A,,8 | G,,4 C,4 D,4 E,4 | F,2 F,2 D,4 C,4 G,,2 G,,2 | D,4 G,,4 C,2 A,,2 D,4 | %40
w: mie- * *|i, Par- tir non|do- vea te- co i pen- sier|mie- i, i pen- sier|
 C,6 B,,2 A,,8 | G,,16- | G,,16 |] %43
w: mie- * *|i.|_|

